!!!!SEGMENT: pl-sa--l-1643--084_anonim--ecce-virgo-concipiet.krn
!!!cenid: 16xx:1446
!!!COM: Anonim
!!!COM-rismID: pe30004985
!!!CDT:
!!!CNT:
!!!OTL: Ecce virgo concipiet
!!!PDT:
!!!AGN: Sacred
!!!SMS-siglum: PL-SA
!!!SMS-shelfmark: L 1643
!!!SMS-shelfwork: 084 W
!!!SMS-variant: 1 głskan 57,58 2 gł 6 księga skan 70-71, trzeci głos 7 ksiega skan 76-77, czwarty głos księga 8 skan 76-77
!!!SMS-altvar:
!!!NIFC-rismSourceID: 1001064077
!!!NIFC-rismChildID: 1001064077
!!!NIFC-islandoraID:
!!!URL-pdf-islandora:
!!!URL-scan:
!!!IIIF:
!!!ONB-nifc: UWAGA: 8 ksiąg. Primi chori: 1mus Cantus (x), C 2dus (x), C 3tius (x), Bassus (x); Secondi chori: Primus Cantus (158-159), C 2dus (159-160), Altus (157-158), Bassus (152-154). UWAGA: Nie dodawać pustych linii, chyba że w rękopisie pojawiają się dodatkowe oznaczenia dotyczące pełnej obsady (a 4, a 8 itp.)
!!!AIN: 1 alto 1 bass 2 empty
!!!key:
**kern	**text	**kern	**text	**kern	**text	**kern	**text
*part4	*part4	*part3	*part3	*part2	*part2	*part1	*part1
*staff4	*staff4	*staff3	*staff3	*staff2	*staff2	*staff1	*staff1
*Ibass	*	*Ialto	*	*Iempty	*	*Iempty	*
*I"Bassus	*	*I"Altus	*	*I"Cantus 2dus	*	*I"Primus Cantus	*
*I'B.	*	*I'A.	*	*I'C II	*	*I'C. I	*
*clefC3	*	*clefC2	*	*clefC1	*	*clefG2	*
*k[b-]	*	*k[b-]	*	*k[b-]	*	*k[b-]	*
*g:	*	*g:	*	*g:	*	*g:	*
*M2/2	*	*M2/2	*	*M2/2	*	*M2/2	*
*met(C|)	*	*met(C|)	*	*met(C|)	*	*met(C|)	*
=1-	=1-	=1-	=1-	=1-	=1-	=1-	=1-
!LO:TX:b:t=Ecce Virgo	!	!LO:TX:b:t=Ecce Virgo	!	!LO:TX:b:t=Ecce Virgo	!	!	!
0r	.	0r	.	1r	.	4dd\	Ec-
.	.	.	.	.	.	4dd\	-ce
.	.	.	.	.	.	2dd\	Vir-
=2-	=2-	=2-	=2-	=2-	=2-	=2-	=2-
.	.	.	.	1r	.	4cc\	-go
.	.	.	.	.	.	4b-/	con-
.	.	.	.	.	.	4.a/	-ci-
.	.	.	.	.	.	8a/	-pi-
=3-	=3-	=3-	=3-	=3-	=3-	=3-	=3-
4r	.	4r	.	4r	.	4g,/	-et
!	!	!	!	!LO:N:acc=#	!	!	!
4G/	Et	4g\	Et	4bn\	Et	4dd\	et
4.c/	pa-	4.g\	pa-	4.cc\	pa-	4.ee-X\	pe-
8c/	-ri-	8g\	-ri-	8b\	-ri-	8dd\	-ri-
=4-	=4-	=4-	=4-	=4-	=4-	=4-	=4-
4F/	-et	4f\	-et	4a\	-et	4cc\	-et
4F/	et	4f\	et	4a\	et	4cc\	et
4.B-/	pa-	4.f\	pa-	4.bny\	pa-	4.dd\	pa-
8B-/	-ri-	8f\	-ri-	8a\	-ri-	8cc\	-ri-
=5-	=5-	=5-	=5-	=5-	=5-	=5-	=5-
4e-X\	-et	4g\	-et	4g/	-et	4b-/	-et
4e-\	et	4g\	et	4g/	et	4b-/	et-
4.c/	pa-	4.g\	pa-	4.cc\	pa-	4.ee-X\	pa-
8c/	-ri-	8g\	-ri-	8b-\	-ri-	8dd\	-ri-
=6-	=6-	=6-	=6-	=6-	=6-	=6-	=6-
4f\	-et	4f\	-er	4a\	-et	4cc\	-et
4f\	et	4f\	et	4a\	et	4cc\	et
4.B-/	pa-	4.f\	pa-	4.dd\	pa-	4.ff\	pa-
8B-/	-ri-	8f\	-ri-	8cc\	-ri-	8ee\	-ri-
=7-	=7-	=7-	=7-	=7-	=7-	=7-	=7-
*	*	*	*	*custos:g	*	*custos:ee	*
!	!	!	!	!LO:LB:g=original	!	!	!
4B-/	-et	2b-X\	-er	2b-\	-et	2dd\	-et
4c/	Fi-	.	.	.	.	.	.
!	!	!	!	!	!	!LO:LB:g=original	!
4d\	.	2g\	Fi-	4g/	Fi-	2.ee-X\	Fi-
4eny\	.	.	.	4.cc\	.	.	.
=8-	=8-	=8-	=8-	=8-	=8-	=8-	=8-
2f\	.	2f\	.	.	.	.	.
.	.	.	.	8b-\J	.	.	.
.	.	.	.	2b-\	.	4dd\	.
2F/	-li-	2f\	-li-	.	.	4.cc\	.
.	.	.	.	4a\	-li-	.	.
.	.	.	.	.	.	8cc\	-li-
=9-	=9-	=9-	=9-	=9-	=9-	=9-	=9-
*custos:f	*	*custos:g	*	*	*	*	*
!LO:LB:g=original	!	!LO:LB:g=original	!	!	!	!	!
1B-;	-um	1f;<	-um	1b-	-um	1dd;<	-um
=10-	=10-	=10-	=10-	=10-	=10-	=10-	=10-
4d\	Ec-	0r	.	0r	.	0r	.
4d\	-ce	.	.	.	.	.	.
2d\	Vir-	.	.	.	.	.	.
=11-	=11-	=11-	=11-	=11-	=11-	=11-	=11-
4c/	-go	.	.	.	.	.	.
4B-/	con-	.	.	.	.	.	.
4.A/	-ci-	.	.	.	.	.	.
8A/	-pi-	.	.	.	.	.	.
=12-	=12-	=12-	=12-	=12-	=12-	=12-	=12-
4G/	-et	4r	.	2r	.	2r	.
4G/	et	4g\	et	.	.	.	.
4.c/	pa-	4.e/	pa-	4r	.	4r	.
.	.	.	.	4g/	et	4g/	et
8B-/	-ri-	8e/	-ri-	.	.	.	.
=13-	=13-	=13-	=13-	=13-	=13-	=13-	=13-
4A/	-et	4f\	-et	4.a\	pa-	4.cc\	pa-
4A/	et	4f\	et	.	.	.	.
.	.	.	.	8g/	-ri-	8b-/	-ri-
4.d\	pa-	4.d/	pa-	4f/	-et	4a,/	-et
.	.	.	.	4f/	et	4a/	et
8c/	-ri-	8d/	-ri-	.	.	.	.
=14-	=14-	=14-	=14-	=14-	=14-	=14-	=14-
4B-/	-et	4g\	-er	4.b-\	pa-	4.dd\	pa-
4B-/	et	4g\	et	.	.	.	.
.	.	.	.	8a\	-ri-	8cc\	-ri-
4.e-X\	pa-	4.g\	pa-	4g,/	-et	4b-/	-et
.	.	.	.	4g/	et	4b-/	et
8d\	-ri-	8g\	-ri-	.	.	.	.
=15-	=15-	=15-	=15-	=15-	=15-	=15-	=15-
1c	-et	2g\	-er	4.cc\	pa-	4.ee-X\	pa-
.	.	.	.	8cc\	-ri-	8ee-\	-ri-
.	.	4g\	Fi-	2cc\	-et	2ee-\	-et
.	.	4a\	.	.	.	.	.
=16-	=16-	=16-	=16-	=16-	=16-	=16-	=16-
!	!	!	!	!LO:N:acc=#	!	!	!
1.G	Fi-	2d/	.	2bn\	Fi-	2dd\	Fi-
.	.	1g\	.	1cc\	.	2ee-X\	.
=17-	=17-	=17-	=17-	=17-	=17-	=17-	=17-
.	.	.	.	.	.	2.dd\	.
!	!	!	!	!LO:N:acc=#	!	!	!
2G/	-li-	2d/	-li-	2bn\	-li-	.	.
.	.	.	.	.	.	4dd\	-li-
=18-	=18-	=18-	=18-	=18-	=18-	=18-	=18-
*	*	*	*	*	*	*custos:g	*
!	!	!	!	!	!	!LO:LB:goriginal	!
1c;<	-um	1e;<	-um	1cc	-um	1cc;	-um
=19-	=19-	=19-	=19-	=19-	=19-	=19-	=19-
0r	.	1r	.	4dd\	Ec-	0r	.
*	*	*	*	*custos:dd	*	*	*
!	!	!	!	!LO:LB:g=original	!	!	!
.	.	.	.	4dd\	-ce	.	.
.	.	.	.	2dd\	Vir-	.	.
=20-	=20-	=20-	=20-	=20-	=20-	=20-	=20-
.	.	2r	.	4cc\	-go	.	.
.	.	.	.	4b-\	con-	.	.
.	.	4r	.	4.a\	-ci-	.	.
.	.	4d/	et	.	.	.	.
.	.	.	.	8a\	-pi-	.	.
=21-	=21-	=21-	=21-	=21-	=21-	=21-	=21-
4r	.	4.g\	pa-	2g/	-et	2r	.
*custos:c	*	*	*	*	*	*	*
!LO:LB:g=original	!	!	!	!	!	!	!
4G/	et	.	.	.	.	.	.
.	.	8f\	-ri-	.	.	.	.
4.c/	pa-	4e/	-et	2r	.	4r	.
*	*	*custos:a	*	*	*	*	*
!	!	!LO:LB:g=original	!	!	!	!	!
.	.	4e/	et	.	.	4g/	et
8B-/	-ri-	.	.	.	.	.	.
=22-	=22-	=22-	=22-	=22-	=22-	=22-	=22-
4A,/	-et	4.a\	pa-	4r	.	4.cc\	pa-
4A/	et	.	.	4cc\	et	.	.
.	.	8g\	-ri-	.	.	8b-/	-ri-
4.d\	pa-	4f\	-et	4.dd\	pa-	4a/	-et
.	.	4f\	et	.	.	4a/	et
8c/	-ri-	.	.	8dd\	-ri-	.	.
=23-	=23-	=23-	=23-	=23-	=23-	=23-	=23-
1B-,	-et	4.f\	pa-	2dd\	-et	4.dd\	pa-
.	.	8f\	-ri-	.	.	8dd\	-ri-
.	.	2g\	-et	4.b-\	Fi-	2dd\	-et
.	.	.	.	8a\	-li-	.	.
=24-	=24-	=24-	=24-	=24-	=24-	=24-	=24-
1c	Fi-	1e	Fi-	2g,/	-um	2.cc\	Fi-
.	.	.	.	2.a\	Fi-	.	.
.	.	.	.	.	.	4b-/	.
=25-	=25-	=25-	=25-	=25-	=25-	=25-	=25-
2.d\	.	4f#X\	.	.	.	2.a/	.
.	.	2g\	.	4g/	.	.	.
.	.	.	.	4.a\	.	.	.
4d\	-li-	4f#\	-li-	.	.	4a/	-li-
.	.	.	.	8a\	-li-	.	.
=26-	=26-	=26-	=26-	=26-	=26-	=26-	=26-
!	!	!	!	!	!	!LO:N:acc=#	!
1G;	-um	1g,	-um	1g	-um	1bn,	-um
=27-	=27-	=27-	=27-	=27-	=27-	=27-	=27-
!	!	!	!	!LO:N:acc=#	!	!	!
00r	.	4g\	et	4bn\	et	4dd\	et
.	.	4g\	vo-	4b\	vo-	4dd\	vo-
.	.	2.g\	-ca-	2.b\	-ca-	2.dd\	-ca-
=28-	=28-	=28-	=28-	=28-	=28-	=28-	=28-
.	.	4g\	-bi-	4b\	-bi-	4dd\	-bi-
*	*	*	*	*custos:g	*	*	*
!	!	!	!	!LO:LB:g=original	!	!	!
.	.	2c,/	-tur	2cc\	-tur	2ee-X\	-tur
=29-	=29-	=29-	=29-	=29-	=29-	=29-	=29-
.	.	1.e-X	no-	2.g/	no-	2.b-/	no-
.	.	.	.	4f#X/	.	4a/	.
=30-	=30-	=30-	=30-	=30-	=30-	=30-	=30-
.	.	.	.	2g/	-men	2b-/	.
.	.	2c/	-men	2a,\	.	2cc,\	-men
=31-	=31-	=31-	=31-	=31-	=31-	=31-	=31-
*	*	*	*	*	*	*custos:cc	*
!	!	!	!	!	!	!LO:LB:g=original	!
0r	.	4B-/	e-	1b-y	e-	1dd	e-
.	.	4c/	.	.	.	.	.
.	.	4d/	.	.	.	.	.
.	.	4e/	.	.	.	.	.
=32-	=32-	=32-	=32-	=32-	=32-	=32-	=32-
.	.	2fny\	-ius	2a\	-ius	2cc\	-ius
*	*	*custos:d	*	*	*	*	*
!	!	!LO:LB:g=original	!	!	!	!	!
.	.	2g\	Em-	2g/	Em-	2b-/	Em-
=33-	=33-	=33-	=33-	=33-	=33-	=33-	=33-
1r	.	2.d/	-ma-	2.f#X/	-ma-	2.a/	-ma-
.	.	4d/	-nu-	4f#/	-nu-	4a/	-nu-
=34-	=34-	=34-	=34-	=34-	=34-	=34-	=34-
4G/	et	1g	-el	1g	-el	1b-,	-el
4G/	vo-	.	.	.	.	.	.
2.G/	-ca-	.	.	.	.	.	.
=35-	=35-	=35-	=35-	=35-	=35-	=35-	=35-
!	!	!	!	!LO:N:acc=#	!	!	!
.	.	4g\	et	4bn\	et	4dd\	et
4G/	-bi-	4g\	vo-	4b\	vo-	4dd\	vo-
2c/	-tur	4.e/	-ca-	4.g/	-ca-	2.cc\	-ca-
.	.	8e/	-bi-	8g/	-bi-	.	.
=36-	=36-	=36-	=36-	=36-	=36-	=36-	=36-
1.A	no-	2f,\	-tur	2a\	-tur	.	.
.	.	.	.	.	.	4cc\	-bi-
.	.	1f\	no-	1a\	no-	2cc\	-tur
=37-	=37-	=37-	=37-	=37-	=37-	=37-	=37-
.	.	.	.	.	.	2cc\	no-
2B-,/	-men	2d,/	-men	2g/	-men	2dd\	-men
=38-	=38-	=38-	=38-	=38-	=38-	=38-	=38-
1c	e-	1e	e-	1a	e-	1cc	e-
=39-	=39-	=39-	=39-	=39-	=39-	=39-	=39-
2d\	-ius	2f#X,\	-ius	2a\	-ius	2cc\	-ius
2G/	Em-	2g\	Em-	2b-\	Em-	2dd\	Em-
=40-	=40-	=40-	=40-	=40-	=40-	=40-	=40-
2.d\	-ma-	2.f#X\	-ma-	2.a\	-ma-	2.dd\	-ma-
*custos:G	*	*	*	*custos:b	*	*	*
!LO:LB:g=original	!	!	!	!LO:LB:g=original	!	!	!
4d\	-nu-	4f#\	-nu-	4a\	-nu-	4dd\	-nu-
=41-	=41-	=41-	=41-	=41-	=41-	=41-	=41-
!	!	!	!	!LO:N:acc=#	!	!	!
1G;	-el	1g	-el	1bn	-el	1dd	-el
=42-	=42-	=42-	=42-	=42-	=42-	=42-	=42-
*M3/2	*	*M3/2	*	*M3/2	*	*M3/2	*
1G	Et	1g	et	1b-y	Et	1dd	Et
1G/	da-	1g\	da-	1b-\	da-	1dd\	da-
!!linebreak:original
=43-	=43-	=43-	=43-	=43-	=43-	=43-	=43-
1A	-bit	1fny	-bit	1cc	-bit	1cc	-bit
=44-	=44-	=44-	=44-	=44-	=44-	=44-	=44-
0B-	il-	0d	il-	0dd	il-	0b-	il-
=45-	=45-	=45-	=45-	=45-	=45-	=45-	=45-
*	*	*custos:e	*	*	*	*custos:cc	*
!	!	!LO:LB:g=original	!	!	!	!LO:LB:goriginal	!
1G	-li	1g	-li	1b-,	-li	1dd	-li
=46-	=46-	=46-	=46-	=46-	=46-	=46-	=46-
1.A	Do-	1.e	Do-	1.a	Do-	1.cc#X	Do-
=47-	=47-	=47-	=47-	=47-	=47-	=47-	=47-
2A/	-mi-	2e/	-mi-	2a\	-mi-	2cc#X\	-mi-
!	!	!LO:TX:b:t=P:problem=# below	!	!	!	!	!
1d	-nus	1f#X	-nus	1a,	-nus	1dd,	-nus
=48-	=48-	=48-	=48-	=48-	=48-	=48-	=48-
00.r	.	0.r	.	1g	et	1b-	et
.	.	.	.	1g\	da-	1b-\	da-
=49-	=49-	=49-	=49-	=49-	=49-	=49-	=49-
.	.	.	.	1a	-bit	1ccny	-bit
=50-	=50-	=50-	=50-	=50-	=50-	=50-	=50-
.	.	1d	et	0b-	il-	0dd	il-
.	.	1d/	da-	.	.	.	.
=51-	=51-	=51-	=51-	=51-	=51-	=51-	=51-
.	.	1e	-bit	1g	-li	1cc	-li
=52-	=52-	=52-	=52-	=52-	=52-	=52-	=52-
1A	et	0fny	il-	1.a	D(o-	1.cc	Do-
1A/	da-	.	.	.	.	.	.
=53-	=53-	=53-	=53-	=53-	=53-	=53-	=53-
.	.	.	.	2a\	-mi)-	2cc\	-mi-
1B-	-bit	1d	-li	1g,	-nus	1dd,	-nus
=54-	=54-	=54-	=54-	=54-	=54-	=54-	=54-
0c	il-	1.e	Do-	1g	et	1cc	et
.	.	.	.	1g\	da-	1cc\	da-
=55-	=55-	=55-	=55-	=55-	=55-	=55-	=55-
.	.	2e/	-mi-	.	.	.	.
!	!	!LO:TX:b:t=P:problem=# below	!	!	!	!	!
1A	-li	1f#X	-nus	1a	-bit	1cc	-bit
!!linebreak:original
=56-	=56-	=56-	=56-	=56-	=56-	=56-	=56-
1.G	Do-	1g	et	0b-	il-	0b-	il-
.	.	1g\	da-	.	.	.	.
=57-	=57-	=57-	=57-	=57-	=57-	=57-	=57-
2G/	-mi-	.	.	.	.	.	.
*	*	*	*	*custos:b	*	*	*
!	!	!	!	!LO:LB:g=original	!	!	!
1d	-nus	1fny	-bit	1a	-li	1dd	-li
=58-	=58-	=58-	=58-	=58-	=58-	=58-	=58-
00.r	.	2g\	il-	2b-\	Do-	0dd	Do-
.	.	2f\	.	2a\	.	.	.
.	.	2g\	.	2b-\	.	.	.
=59-	=59-	=59-	=59-	=59-	=59-	=59-	=59-
.	.	2a\	.	2cc\	.	.	.
*	*	*custos:b	*	*	*	*	*
!	!	!LO:LB:g=original	!	!	!	!	!
.	.	1b-	-li	1dd	.	1dd	-mi-
=60-	=60-	=60-	=60-	=60-	=60-	=60-	=60-
*	*	*	*	*	*	*custos:ff	*
!	!	!	!	!	!	!LO:LB:goriginal	!
.	.	1.a	Do-	1.cc#X	.	0.eeny	-nus
=61-	=61-	=61-	=61-	=61-	=61-	=61-	=61-
.	.	2a\	-mi-	2cc#X\	-mi-	.	.
.	.	1d,	-nus	1dd,	-nus	.	.
=62-	=62-	=62-	=62-	=62-	=62-	=62-	=62-
1B-	et	1d	et	1dd	et	1ff	et
1B-/	da-	1d/	da-	1dd\	da-	1ff\	da-
=63-	=63-	=63-	=63-	=63-	=63-	=63-	=63-
*custos:d	*	*	*	*	*	*	*
!LO:LB:g=original	!	!	!	!	!	!	!
1c	-bit	1e	-bit	1ccny	-bit	1ee-	-bit
=64-	=64-	=64-	=64-	=64-	=64-	=64-	=64-
0d	il-	0f#X	il-	0a	il-	0dd	ul-
=65-	=65-	=65-	=65-	=65-	=65-	=65-	=65-
1G	-li	1g	-li	1b-	-li	1b-	-li
=66-	=66-	=66-	=66-	=66-	=66-	=66-	=66-
1.d	Do-	1.f#X	Do-	1.a	Do-	1.dd	Do-
=67-	=67-	=67-	=67-	=67-	=67-	=67-	=67-
2d\	-mi-	2f#\	-mi-	2a\	-mi-	2dd\	-mi-
1G	-nus	1g,	-nus	1g	-nus	1b-	-nus
=68-	=68-	=68-	=68-	=68-	=68-	=68-	=68-
*M2/2	*	*M2/2	*	*M2/2	*	*M2/2	*
*met(C|)	*	*met(C|)	*	*met(C|)	*	*met(C|)	*
0r	.	4d/	Se-	2r	.	1r	.
.	.	4e,/	-dem	.	.	.	.
.	.	4f/	Da-	4a\	se-	.	.
!	!	!	!	!LO:N:acc=#	!	!	!
.	.	4d,/	-vid	4bn\	-dem	.	.
=69-	=69-	=69-	=69-	=69-	=69-	=69-	=69-
.	.	4e/	P(at)-	4cc\	Da-	2r	.
.	.	4f\	-ris	4a\	-vid	.	.
.	.	2g\	e-	4b-y\	P(at)-	4dd\	Se-
*	*	*	*	*custos:a	*	*	*
!	!	!	!	!LO:PB:g=original	!	!	!
.	.	.	.	4b-y\	-ris	4ee\	-dem
=70-	=70-	=70-	=70-	=70-	=70-	=70-	=70-
2r	.	2d/	-ius	4a\	e-	4ff\	Da-
.	.	.	.	4b-\	.	4dd,\	-vid
4A/	Se-	4e/	se-	4cc\	.	4cc\	P(at)-
*	*	*custos:g	*	*	*	*	*
!	!	!LO:PB:g=original	!	!	!	!	!
4B-/	-dem	4f\	-dem	4b-,\	-ius	4dd\	-ris
=71-	=71-	=71-	=71-	=71-	=71-	=71-	=71-
4c/	Da-	4g\	Da-	4g/	se-	4ee\	e-
4A/	-vid	4e/	-vid	4a\	-dem	4cc\	.
4B-/	P(at)-	4a\	P(at)-	2g/	Da-	4dd\	.
4c\	-ris	4f\	-ris	.	.	4ee\	.
=72-	=72-	=72-	=72-	=72-	=72-	=72-	=72-
2d\	e-	2a\	e-	4dd\	-vid	2ff\	.
.	.	.	.	2dd\	P(at)-	.	.
2A/	-ius	2d/	-ius	.	.	2ee,\	-ius
.	.	.	.	4cc\	-ris	.	.
=73-	=73-	=73-	=73-	=73-	=73-	=73-	=73-
1r	.	1r	.	2dd\	e-	4dd\	pa-
.	.	.	.	.	.	4dd\	-tris
.	.	.	.	2a\	-ius	4.cc\	e-
.	.	.	.	.	.	8dd\	.
=74-	=74-	=74-	=74-	=74-	=74-	=74-	=74-
*	*	*	*	*	*	*custos:dd	*
!	!	!	!	!	!	!LO:PB:g=original	!
4A/	Se-	1r	.	4cc\	Se-	2ee,\	-ius
4B-/	-dem	.	.	4dd\	-dem	.	.
4c/	Da-	.	.	4ee\	Da-	2r	.
4A/	-vid	.	.	4cc\	-vid	.	.
=75-	=75-	=75-	=75-	=75-	=75-	=75-	=75-
2.B-/	P(at)-	4e/	Se-	2.b-X\	P(at)-	4dd\	se-
.	.	4f#X\	-dem	.	.	4dd\	-dem
.	.	4g\	Da-	.	.	4dd\	Da-
4G/	-ris	4d/	-vid	4b-\	-ris	4ee\	-vid
!!linebreak:original
=76-	=76-	=76-	=76-	=76-	=76-	=76-	=76-
0A	e-	1g	Pa-	4a\	e-	4cc#X\	P(at)-
.	.	.	.	4b-\	.	4dd\	.
.	.	.	.	4cc\	.	4ee\	ris
.	.	.	.	4dd\	.	4ff\	.
=77-	=77-	=77-	=77-	=77-	=77-	=77-	=77-
.	.	2f#y\	-tris	4ee\	.	4ee\	e-
.	.	.	.	4ff\	.	2dd\	.
.	.	1a\	e-	2ee\	.	.	.
.	.	.	.	.	.	4cc#X\	.
=78-	=78-	=78-	=78-	=78-	=78-	=78-	=78-
1d	-ius	.	.	1dd	-ius	1dd	-ius
.	.	1f#X\	-ius	.	.	.	.
=79-	=79-	=79-	=79-	=79-	=79-	=79-	=79-
4d\	et	.	.	4a\	et	0r	.
*custos:d	*	*	*	*	*	*	*
!LO:LB:g=original	!	!	!	!	!	!	!
4d\	re-	.	.	4a\	re-	.	.
4d\	-gna-	4f#X\	et	4.a\	-gna-	.	.
4G/	-bit	4f#\	re-	.	.	.	.
.	.	.	.	8b-\	-bit	.	.
=80-	=80-	=80-	=80-	=80-	=80-	=80-	=80-
4c/	in	4.f#\	-gna-	4a\	in	.	.
4e-X\	ae-	.	.	4g/	ae-	.	.
.	.	8g\	-bit	.	.	.	.
4d\	-ter-	4e-X\	in	4a\	-te-	.	.
*	*	*	*	*custos:b	*	*	*
!	!	!	!	!LO:LB:g=original	!	!	!
4G/	-num	4g\	ae-	4b-\	-num	.	.
=81-	=81-	=81-	=81-	=81-	=81-	=81-	=81-
0r	.	4f#n\	-ter-	4b-\	et	4dd\	et
.	.	4g\	-n(um)	4b-\	re-	4dd\	re-
.	.	4g\	et	4.b-\	-gna-	4.dd\	-gna-
.	.	4g\	re-	.	.	.	.
.	.	.	.	8a\	-bit	8ff\	-bit
=82-	=82-	=82-	=82-	=82-	=82-	=82-	=82-
.	.	4.g\	-gna-	4b-\	in	4ee\	in
.	.	.	.	4dd\	ae-	4dd\	ae-
*	*	*custos:a	*	*	*	*	*
!	!	!LO:LB:g=original	!	!	!	!	!
.	.	8d\	-bit	.	.	.	.
.	.	4a\	ter-	4cc#X\	-ter-	4ee\	-ter-
.	.	4d,/	-num	4dd,\	-num	4dd\	-n(um)
=83-	=83-	=83-	=83-	=83-	=83-	=83-	=83-
2B-/	et	4d/	et	4dd\	/et	4ff\	et
.	.	4d/	re-	4dd\	re-	4ff\	re-
2B-/	re-	4.fny\	-gna-	4.dd\	-gna-	4.ff\	-gna-
.	.	8f\	-bit	8ccny\	-bit	8ee\	-bit
!!linebreak:original
=84-	=84-	=84-	=84-	=84-	=84-	=84-	=84-
4B-/	-gna-	2.f\	in	4b-\	in	4dd\	in
4F/	-bit	.	.	4cc\	ae-	4cc\	ae-
4B-/	in	.	.	4dd\	-ter-	4b-/	-ter-
4d\	ae-	4a\	ae-	4cc,\	-num/	4a,/	-n(um)
=85-	=85-	=85-	=85-	=85-	=85-	=85-	=85-
4B-/	-ter-	4b-X\	-ter-	4b-\	et	4dd\	/in
4F/	-num	4a\	-num	4cc\	reg-	4cc\	ae-
2r	.	2r	.	4dd\	-na-	4b-\	-ter-
.	.	.	.	4cc\	-bit	4a/	.
=86-	=86-	=86-	=86-	=86-	=86-	=86-	=86-
4G/	in	2g\	in	2.dd\	in	4b-/	-n(um)
4A/	.	.	.	.	.	4cc\	.
*	*	*	*	*	*	*custos:ee	*
!	!	!	!	!	!	!LO:LB:g=origina	!
4B-/	.	2g\	ae-	.	.	4dd\	in
4c/	.	.	.	4cc\	ae-	4ee-X\	ae-
=87-	=87-	=87-	=87-	=87-	=87-	=87-	=87-
!	!	!LO:TX:b:t=P:problem=# below	!	!	!	!	!
4d\	.	4f#X\	-ter-	4cc\	-ter-	1dd	-ter-
4d\	ae-	2g\	.	4b-\	.	.	.
2d\	-ter-	.	.	2a\	.	.	.
.	.	4f#X\	.	.	.	.	.
=88-	=88-	=88-	=88-	=88-	=88-	=88-	=88-
!	!	!	!	!LO:N:acc=#	!	!	!
1G	-num	1g	-num	1bn	-num	1dd	-num
=89-	=89-	=89-	=89-	=89-	=89-	=89-	=89-
*M3/2	*	*M3/2	*	*M3/2	*	*M3/2	*
00.r	.	1b-X	Et	1dd	Et	00.r	.
.	.	1g\	re-	1b-\	re-	.	.
=90-	=90-	=90-	=90-	=90-	=90-	=90-	=90-
.	.	1a	-gni	1cc,	-gni	.	.
=91-	=91-	=91-	=91-	=91-	=91-	=91-	=91-
.	.	1b-	e-	1dd	e-	.	.
.	.	1g\	-ius	1b-\	-ius	.	.
=92-	=92-	=92-	=92-	=92-	=92-	=92-	=92-
*	*	*	*	*custos:dd	*	*	*
!	!	!	!	!LO:LB:g=original	!	!	!
.	.	1a	non	1cc	non	.	.
=93-	=93-	=93-	=93-	=93-	=93-	=93-	=93-
00.r	.	0b-	e-	0dd	e-	00.r	.
=94-	=94-	=94-	=94-	=94-	=94-	=94-	=94-
.	.	1g	rit	1dd	-rit	.	.
=95-	=95-	=95-	=95-	=95-	=95-	=95-	=95-
.	.	0a	fi-	0cc#X	fi-	.	.
=96-	=96-	=96-	=96-	=96-	=96-	=96-	=96-
*	*	*custos:f	*	*	*	*	*
!	!	!LO:TX:b:t=P:problem=# below	!	!	!	!	!
.	.	1d	-nis	1dd	-nis	.	.
=97-	=97-	=97-	=97-	=97-	=97-	=97-	=97-
1d	et	0.r	.	00.r	.	1ff	Et
1B-/	re-	.	.	.	.	1dd\	re-
=98-	=98-	=98-	=98-	=98-	=98-	=98-	=98-
*custos:d	*	*	*	*	*	*	*
!LO:PB:g=original	!	!	!	!	!	!	!
1c	-gni	.	.	.	.	1eeny	-gni
=99-	=99-	=99-	=99-	=99-	=99-	=99-	=99-
1d	e-	1fny	et	.	.	1ff	e-
1B-/	-ius	1g\	re-	.	.	1dd\	-ius
=100-	=100-	=100-	=100-	=100-	=100-	=100-	=100-
1c	non	1eny	-gni	.	.	1ee	non
=101-	=101-	=101-	=101-	=101-	=101-	=101-	=101-
0d	e-	1a	e-	1a	Et	0ff	e-
.	.	1f\	-ius	1a\	re-	.	.
=102-	=102-	=102-	=102-	=102-	=102-	=102-	=102-
1B-	-rit	1f	non	1b-	-gni	1dd	-rit
=103-	=103-	=103-	=103-	=103-	=103-	=103-	=103-
0F	fi-	0f	e-	1b-	e-	0cc	fi-
.	.	.	.	1a\	-ius	.	.
=104-	=104-	=104-	=104-	=104-	=104-	=104-	=104-
1B-	-nis	1f	-rit	1b-	non	1dd	-nis
=105-	=105-	=105-	=105-	=105-	=105-	=105-	=105-
00.r	.	0f	fi-	0a	e-	1cc	Et
.	.	.	.	.	.	1cc\	re-
=106-	=106-	=106-	=106-	=106-	=106-	=106-	=106-
.	.	1B-	-nis	1b-	-rit	1dd	-gni
=107-	=107-	=107-	=107-	=107-	=107-	=107-	=107-
.	.	0.r	.	0ccny	fi-	1ee-X	e-
.	.	.	.	.	.	1ee-\	-ius
=108-	=108-	=108-	=108-	=108-	=108-	=108-	=108-
.	.	.	.	1b-,	-nis	1dd	non
=109-	=109-	=109-	=109-	=109-	=109-	=109-	=109-
1c	et	1g	Et	1g	et	0b-	e-
1c\	re-	1g\	re-	1g\	re-	.	.
=110-	=110-	=110-	=110-	=110-	=110-	=110-	=110-
1d	-gni	1e-X	-gni	1a,	-gni	1ee-X	-rit
=111-	=111-	=111-	=111-	=111-	=111-	=111-	=111-
1e-X	e-	1f	e-	1b-	e-	0dd	fi-
1e-\	-ius	1f\	-ius	1b-\	-ius	.	.
=112-	=112-	=112-	=112-	=112-	=112-	=112-	=112-
*	*	*	*	*	*	*custos:dd	*
!	!	!	!	!	!	!LO:LB:g=origina	!
1c	non	1g	non	1b-	non	1b-	-nis
=113-	=113-	=113-	=113-	=113-	=113-	=113-	=113-
0B-	e-	0f#X	e-	0a	e-	1dd	et
.	.	.	.	.	.	1dd\	re-
=114-	=114-	=114-	=114-	=114-	=114-	=114-	=114-
*	*	*	*	*custos:a	*	*	*
!	!	!	!	!LO:LB:g=original	!	!	!
1G	-rit	1g	-rit	1b-	-rit	1b-	-gni
=115-	=115-	=115-	=115-	=115-	=115-	=115-	=115-
0d	fi-	0f#X	fi-	0a	fi-	1dd	e-
.	.	.	.	.	.	1dd\	-ius
=116-	=116-	=116-	=116-	=116-	=116-	=116-	=116-
1G	-nis	1g	-nis.	1b-	.	1dd	non
=117-	=117-	=117-	=117-	=117-	=117-	=117-	=117-
0.r	.	0.r	.	0a	.	0dd	e-
=118-	=118-	=118-	=118-	=118-	=118-	=118-	=118-
*	*	*custos:f	*	*	*	*	*
!	!	!LO:TX:b:t=P:problem=# below	!	!	!	!	!
.	.	.	.	1g,	-nis	1b-	-rit
=119-	=119-	=119-	=119-	=119-	=119-	=119-	=119-
1d	Et	1f#X	et	1a	et	0dd	fi-
!	!	!LO:TX:b:t=P:problem=# below	!	!	!	!	!
1d\	re-	1f#\	re-	1a\	re-	.	.
=120-	=120-	=120-	=120-	=120-	=120-	=120-	=120-
1G	-gni	1g	-gni	1dd	-gni	1b-	-nis
=121-	=121-	=121-	=121-	=121-	=121-	=121-	=121-
1d	e-	1e-X	e-	1cc	e-	00.r	.
!LO:LB:g=original	!	!	!	!	!	!	!
1d\	-ius	1e-\	-ius	1cc\	-ius	.	.
=122-	=122-	=122-	=122-	=122-	=122-	=122-	=122-
1B-	non	1g	non	1g	non	.	.
!!linebreak:original
=123-	=123-	=123-	=123-	=123-	=123-	=123-	=123-
0c	e-	0f#X	e-	0a	e-	.	.
=124-	=124-	=124-	=124-	=124-	=124-	=124-	=124-
1e-X	-rit	1g	-rit	1b-	-rit	.	.
=125-	=125-	=125-	=125-	=125-	=125-	=125-	=125-
0d	fi-	0f#X	fi-	0a	fi-	00.r	.
=126-	=126-	=126-	=126-	=126-	=126-	=126-	=126-
1G	-nis	1g,	-nis	1g,	-nis	.	.
=127-	=127-	=127-	=127-	=127-	=127-	=127-	=127-
00.r	.	1b-X	Et	1dd	et	.	.
.	.	1g\	re-	1b-\	re-	.	.
=128-	=128-	=128-	=128-	=128-	=128-	=128-	=128-
.	.	1a	-gni	1cc	-gni	.	.
=129-	=129-	=129-	=129-	=129-	=129-	=129-	=129-
.	.	1b-	e-	1dd	e-	00.r	.
.	.	1g\	-ius	1b-\	-ius	.	.
=130-	=130-	=130-	=130-	=130-	=130-	=130-	=130-
.	.	1a	non	1cc	non	.	.
=131-	=131-	=131-	=131-	=131-	=131-	=131-	=131-
00.r	.	0b-	e-	0dd	e-	.	.
=132-	=132-	=132-	=132-	=132-	=132-	=132-	=132-
.	.	1g	-rit	1dd	-rit	.	.
=133-	=133-	=133-	=133-	=133-	=133-	=133-	=133-
!	!	!	!	!LO:TX:b:t=P:problem=# below	!	!	!
.	.	0a	fi-	0cc#X	fi-	0.r	.
=134-	=134-	=134-	=134-	=134-	=134-	=134-	=134-
*	*	*	*	*custos:a	*	*	*
!	!	!	!	!LO:LB:g=original	!	!	!
.	.	1d	-nis	1dd	-nis	.	.
=135-	=135-	=135-	=135-	=135-	=135-	=135-	=135-
0.r	.	0.r	.	00.r	.	1ff	Et
.	.	.	.	.	.	1dd\	re-
=136-	=136-	=136-	=136-	=136-	=136-	=136-	=136-
*	*	*custos:f	*	*	*	*	*
!LO:LB:g=original	!	!LO:LB:g=original	!	!	!	!	!
.	.	.	.	.	.	1eeny,	-gni
=137-	=137-	=137-	=137-	=137-	=137-	=137-	=137-
1d	Et	1fny	Et	.	.	1ff	e-
1B-/	re-	1g\	re-	.	.	1dd\	-ius
=138-	=138-	=138-	=138-	=138-	=138-	=138-	=138-
1c	-gni	1eny	-gni	.	.	1ee	non
=139-	=139-	=139-	=139-	=139-	=139-	=139-	=139-
1d	e-	1a	.	1a	et	0ff	e-
1B-/	-ius	1f\	ius	1a\	re-	.	.
=140-	=140-	=140-	=140-	=140-	=140-	=140-	=140-
1c	non	1f	non	1b-	-gni	1dd	-rit
=141-	=141-	=141-	=141-	=141-	=141-	=141-	=141-
0d	e-	0f	e-	1b-	e-	0cc	fi-
.	.	.	.	1b-\	ius	.	.
=142-	=142-	=142-	=142-	=142-	=142-	=142-	=142-
1B-	-rit	1f	-rit	1a	non	1dd,	-nis
=143-	=143-	=143-	=143-	=143-	=143-	=143-	=143-
0F	fi-	0f	fi-	0a	e-	1cc	Et
.	.	.	.	.	.	1cc\	re-
=144-	=144-	=144-	=144-	=144-	=144-	=144-	=144-
*	*	*	*	*	*	*custos:ee	*
!	!	!	!	!	!	!LO:LB:g=origina	!
1B-	-nis	1B-	-nis	1b-	-rit	1dd	-gni
=145-	=145-	=145-	=145-	=145-	=145-	=145-	=145-
0.r	.	0.r	.	0dd	fi-	1ee-X	e-
.	.	.	.	.	.	1ee-\	-ius
=146-	=146-	=146-	=146-	=146-	=146-	=146-	=146-
.	.	.	.	1b-	-nis	1dd	non
=147-	=147-	=147-	=147-	=147-	=147-	=147-	=147-
1c	Et	1g	Et	1g	et	0b-	e-
1c\	re-	1g\	re-	1g\	re-	.	.
=148-	=148-	=148-	=148-	=148-	=148-	=148-	=148-
1d	-gni	1e-X	-gni	1a	-gni	1ee-X	-rit
=149-	=149-	=149-	=149-	=149-	=149-	=149-	=149-
1e-X	e-	1f	e-	1b-	e-	0dd	fi-
1e-\	-ius	1f\	-ius	1b-\	-ius	.	.
=150-	=150-	=150-	=150-	=150-	=150-	=150-	=150-
!LO:LB:g=original	!	!	!	!	!	!	!
1c	non	1g	non	1b-	non	1b-	-nis
=151-	=151-	=151-	=151-	=151-	=151-	=151-	=151-
0B-	e-	0f#X	e-	0a	e-	1dd	Et
.	.	.	.	.	.	1dd\	re-
=152-	=152-	=152-	=152-	=152-	=152-	=152-	=152-
1G	-rit	1g	-rit	1b-	-rit	1b-	-gni
=153-	=153-	=153-	=153-	=153-	=153-	=153-	=153-
0d	fi-	0f#X	fi-	0a	fi-	1dd	e-
.	.	.	.	.	.	1dd\	-ius
=154-	=154-	=154-	=154-	=154-	=154-	=154-	=154-
*	*	*custos:f#	*	*	*	*	*
!	!	!LO:LB:g=original	!	!	!	!	!
1G	-nis	1g	-nis	1b-	.	1dd	non
=155-	=155-	=155-	=155-	=155-	=155-	=155-	=155-
0.r	.	1.r	.	0a	.	0dd	e-
=156-	=156-	=156-	=156-	=156-	=156-	=156-	=156-
.	.	1.r	.	.	.	.	.
.	.	.	.	1g,	-nis	1b-	-rit
=157-	=157-	=157-	=157-	=157-	=157-	=157-	=157-
1d	Et	1f#X	Et	1a	et	0dd	fi-
1d\	re-	1f#\yy	re-	1a\	re-	.	.
=158-	=158-	=158-	=158-	=158-	=158-	=158-	=158-
*	*	*	*	*custos:cc	*	*	*
!	!	!	!	!LO:LB:g=original	!	!	!
1G	-gni	1g	-gni	1dd	-gni	1b-;	-nis.
=159-	=159-	=159-	=159-	=159-	=159-	=159-	=159-
1d	e-	1e-X	e-	1ccny	e-	00.r	.
1d\	-ius	1e-\	-ius	1cc\	-ius	.	.
=160-	=160-	=160-	=160-	=160-	=160-	=160-	=160-
1B-	non	1g	non	1g	non	.	.
=161-	=161-	=161-	=161-	=161-	=161-	=161-	=161-
0c	e-	0f#X	e-	0a	e-	.	.
=162-	=162-	=162-	=162-	=162-	=162-	=162-	=162-
1e-X	-rit	1g	-rit	1b-	-rit	.	.
=163-	=163-	=163-	=163-	=163-	=163-	=163-	=163-
0d	fi-	0f#X	fi-	0a	fi-	0.r	.
=164-	=164-	=164-	=164-	=164-	=164-	=164-	=164-
1G;	-nis.	1g;<	-nis	1g;	-nis,	.	.
==-	==-	==-	==-	==-	==-	==-	==-
*-	*-	*-	*-	*-	*-	*-	*-
!!!system-decoration: s1,s2,s3,s4
!!!RDF**kern: > = above
!!!RDF**kern: < = below
!!!ENC: Berenika Jozajtis
!!!END: 2021-11-04
!!!ENC: Leszek Kubiak
!!!END: 2021-11-08
!!!YEC: Copyright 2022 Narodowy Instytut Fryderyka Chopina (https://polishscores.org)
!!!YEM: License CC-BY-4.0 (https://creativecommons.org/licenses/by/4.0)
